202312-ahaslides-lnd2/assets/images/quote.svg

<svg width="90" height="67" viewBox="0 0 90 67" fill="none" xmlns="http://www.w3.org/2000/svg">
<path d="M89.8027 19.9729C89.8274 24.6085 88.5334 28.9296 86.5815 33.0682C82.4603 41.8104 76.6177 49.2717 69.5042 55.7708C65.2888 59.6209 60.746 63.0436 55.9728 66.1693C55.5149 66.4692 55.1946 66.4968 54.7657 66.1606C54.1484 65.6766 53.5992 65.1535 53.2659 64.4304C52.8529 63.5334 52.8022 62.7147 53.3152 61.7656C56.5422 55.7809 59.6563 49.7368 62.2081 43.4247C62.7414 42.106 63.2225 40.7671 63.4804 39.36C63.6963 38.179 63.6296 38.0312 62.6211 37.4342C59.7403 35.7301 57.0509 33.7855 54.8294 31.2539C52.0545 28.0906 50.6011 24.4607 50.8068 20.1961C51.0329 15.5185 52.266 11.2046 55.2613 7.52395C58.6869 3.3173 63.2051 1.04226 68.513 0.249616C71.8328 -0.245966 75.1092 -0.0126655 78.3087 1.03067C84.0123 2.88982 87.3901 6.8936 88.9029 12.5928C89.5448 15.0098 89.7825 17.4791 89.8027 19.9744V19.9729Z" fill="#0085F0"/>
<path d="M39.0886 18.789C39.1509 24.7273 37.7453 29.2151 35.6745 33.5145C31.5896 41.9944 25.889 49.2659 18.9755 55.6171C14.6804 59.5615 10.0376 63.0509 5.16292 66.2432C4.80355 66.4794 4.54127 66.4982 4.19494 66.2504C3.51677 65.765 2.92265 65.2114 2.57198 64.4405C2.16624 63.5479 2.10248 62.7248 2.61545 61.7742C5.91933 55.665 9.15076 49.5166 11.7345 43.0551C12.217 41.8466 12.6706 40.6251 12.8966 39.3339C13.1096 38.1153 13.0589 38.0095 11.9721 37.3733C9.61156 35.9909 7.40318 34.4042 5.43679 32.4885C1.52865 28.6833 -0.291384 24.1535 0.353452 18.6427C1.01278 13.0058 3.18204 8.19921 7.64373 4.57363C11.0693 1.78997 15.0557 0.401757 19.429 0.11774C22.4141 -0.0764358 25.3673 0.169906 28.2118 1.16542C33.4473 2.99849 36.5338 6.8052 38.0496 12.0161C38.7958 14.5824 39.0828 17.2153 39.0886 18.7876V18.789Z" fill="#0085F0"/>
</svg>

<svg xmlns="http://www.w3.org/2000/svg" width="90" height="67" fill="none" viewBox="0 0 90 67">
  <path fill="#0085F0" d="M89.803 19.973c.024 4.636-1.27 8.957-3.221 13.095-4.122 8.742-9.964 16.204-17.078 22.703-4.215 3.85-8.758 7.273-13.531 10.398-.458.3-.778.328-1.207-.008-.618-.484-1.167-1.008-1.5-1.73-.413-.898-.464-1.716.05-2.665 3.226-5.985 6.34-12.03 8.892-18.341.533-1.319 1.014-2.658 1.272-4.065.216-1.181.15-1.329-.859-1.926-2.88-1.704-5.57-3.648-7.792-6.18-2.775-3.163-4.228-6.793-4.022-11.058.226-4.678 1.459-8.991 4.454-12.672C58.687 3.317 63.205 1.042 68.513.25c3.32-.496 6.596-.263 9.796.78 5.703 1.86 9.081 5.864 10.594 11.563.642 2.417.88 4.886.9 7.381v-.001Zm-50.714-1.184c.062 5.938-1.344 10.426-3.414 14.725-4.085 8.48-9.786 15.752-16.7 22.103-4.295 3.945-8.937 7.434-13.812 10.626-.36.236-.622.255-.968.007-.678-.485-1.272-1.039-1.623-1.81-.406-.892-.47-1.715.043-2.666 3.304-6.109 6.536-12.257 9.12-18.719.482-1.208.936-2.43 1.162-3.721.213-1.219.162-1.325-.925-1.96-2.36-1.383-4.569-2.97-6.535-4.886C1.529 28.684-.291 24.155.353 18.644c.66-5.637 2.829-10.444 7.29-14.07C11.07 1.79 15.057.403 19.43.119c2.985-.194 5.938.052 8.783 1.047 5.235 1.833 8.322 5.64 9.838 10.851.746 2.566 1.033 5.2 1.039 6.772v.001Z"/>
</svg>
